X: 343
T: Bir Acâib Hâb-ı Gaflete Düştüm
C: Civan Ağa
O: Turkey
F: http://compmusic.upf.edu/node/140
N: rast--sarki--sofyan--bir_acaib--civan_aga
N: makam= rast
N: form= sarki
N: usul= sofyan = 4/4
M: 4/4
L: 1/16
K: C _1/4B ^f  
Q: 1/4=72
%%MIDI tuningsystem comma53
z2B4d2 c3B B3A  | A2G4F2 AGFE D4  | z2D4d2 d3c c3B  | 
w:   |   |   | 
B6A2 AGGA B4  | z2G4e2 d3c B2d2  | c3B A2c2 B3A G4  | 
w:   |   |   | 
A2B2 c2{d}dc B3A A2{B}AG  | G6D2 E2F2 G4  | \
w:   |   | 
z2B4d2 c3B B3A  | 
w:   | 
A2G4F2 AGFE D4  | z2D4d2 d3c c3B  | B6A2 AGGA B4  | 
w:   |   |   | 
z2G4e2 d3c B2d2  | c3B A2c2 B3A G4  | \
w:   |   | 
A2B2 c2{d}dc B3A A2{B}AG  | 
w:   | 
G6D2 E2F2 G4  | B2A2 G2B2 B3A G4  | z2c2 B2A2 dcBA G4  | 
w:   |  *  *  Bir_ a câ *  ib   |  hâb_ *  *  ı   | 
z2c4d2 d2cB d2{e}ed  | d6B2 dcBA B2c2  | \
w:  gaf le te  *  *  düş  |  tüm  a  câ *  *  *  nım    | 
B2A2 G2B2 B3A G4  | 
w:  *  *  Bir_ a câ *  ib   | 
z2c2 B2A2 dcBA G4  | z2c4d2 d2cB d2{e}ed  | \
w:  hâb_ *  *  ı   |  gaf le te  *  *  düş  | 
d6B2 dcBA B2c2  | 
w:  tüm  a  câ *  *  *  nım    | 
d4 d2g2 g2=f2 e2d2  | a2g2 =f2e2 d2{e}dc B^AB2  | \
w:  *  Ne  u yu *  tur   |  be *  *  *  ni   | 
z2c4d2 e2d2 =f2ed  | 
w:  ne  u yan *  *  dı  | 
d6B2 dcBA B2c2  | d4 d2g2 g2=f2 e2d2  | \
w:  rır  a  câ *  *  *  nım    |  *  Ne  u yu *  tur   | 
a2g2 =f2e2 d2{e}dc B3/2A/G2  | 
w:  be *  *  *  ni   | 
z2AB c2{e}dc B3G A2{B}AG  | G6ef g3/2f/ef g4  | \
w:  ne  *  *  *  u *  yan *  *  *  dı  |  rır   SAZ  | 
z4 d2g2 g2{a}gf g4  | 
w:  Ni hâ yet *  *  *  siz   | 
f2e2 f2g2 agfe d4  | e3f d4 g2=fe ed{e}d^c  | \
w:  gâm_ *  *  *  ı   |  hic *  râ ne  *  *  düş  | 
d2e2 f2g2 =b2ag g4  | 
w:  tüm    | 
z4 d2g2 g2{a}gf g4  | f2e2 f2g2 agfe d4  | \
w:  Ni hâ yet *  *  *  siz   |  gâm_ *  *  *  ı   | 
e3f d4 g2=fe ed{e}d^c  | 
w:  hic *  râ ne  *  *  düş  | 
d6B2 dcBA B2c2  | d4 d2g2 g2=f2 e2d2  | \
w:  tüm  a  câ *  *  *  nım    |  *  Ne  u yu *  tur   | 
a2g2 =f2e2 d2{e}dc B^AB2  | 
w:  be *  *  *  ni   | 
z2c4d2 e2d2 =f2ed  | d6B2 dcBA B2c2  | \
w:  ne  u yan *  *  dı  |  rır  a  câ *  *  *  nım    | 
d4 d2g2 g2=f2 e2d2  | 
w:  *  Ne  u yu *  tur   | 
a2g2 =f2e2 d2{e}dc B3/2A/G2  | z2AB c2{e}dc B3G A2{B}AG  | 
w:  be *  *  *  ni   |  ne  *  *  *  u *  yan *  *  *  dı  | 
G6D2 E2F2 G4  | |


